www/assets/icons/location_city.svg

<svg width="24" height="24" viewBox="0 0 24 24" xmlns="http://www.w3.org/2000/svg" fill='currentColor'><path d="M15 11.5V5.5L12 2.5L9 5.5V7.5H3V21.5H21V11.5H15ZM7 19.5H5V17.5H7V19.5ZM7 15.5H5V13.5H7V15.5ZM7 11.5H5V9.5H7V11.5ZM13 19.5H11V17.5H13V19.5ZM13 15.5H11V13.5H13V15.5ZM13 11.5H11V9.5H13V11.5ZM13 7.5H11V5.5H13V7.5ZM19 19.5H17V17.5H19V19.5ZM19 15.5H17V13.5H19V15.5Z"/></svg>

<svg xmlns="http://www.w3.org/2000/svg" width="24" height="24" viewBox="0 0 24 24" fill='currentColor'><path d="M15 11.5v-6l-3-3-3 3v2H3v14h18v-10zm-8 8H5v-2h2zm0-4H5v-2h2zm0-4H5v-2h2zm6 8h-2v-2h2zm0-4h-2v-2h2zm0-4h-2v-2h2zm0-4h-2v-2h2zm6 12h-2v-2h2zm0-4h-2v-2h2z"/></svg>
